X: 30433
M: 6/8
L: 1/8
K: G
d2g d2B | A2G A2B | c2B e2d | dcB B2A |\
d2g d2B | A2G A2B | c2B e2d | cBA G2 :|
|: A |\
d2d c2B | B2B A2G | F2G A2B | c2B B2A |\
d2d c2B | B2B A2G | F2G A2B | cAF G2 :|
|: D |\
|: A |\
d2e d2g | e2f e2g | A2B c2d | c2B A2G |\
d2e d2g | e2f e2g | d2g B2g | A2B G2 :|


